X:1
T:Hitch Hike Blues
M:4/4
L:1/8
K:E
 G2- GE DB, DF| E8| G2- GA B2 c2| B2 G2 F4| G2- GA B2 c2| B2G-F E2- Ec|\
 B2- BG F2 BG| E8|||
